fs/comment_multiple_checkmark_16_regular.svg

<svg viewBox="0 0 16 16" fill="none" xmlns="http://www.w3.org/2000/svg" height="1em" width="1em">
  <path d="M3.05001 3C3.28164 1.85888 4.29052 1 5.5 1H12C13.6569 1 15 2.34315 15 4V7.33692C14.7161 6.93379 14.3794 6.57052 14 6.25716V4C14 2.89543 13.1046 2 12 2H5.5C4.84689 2 4.29127 2.4174 4.08535 3H11C12.1046 3 13 3.89543 13 5V5.59971C12.6832 5.43777 12.3486 5.30564 12 5.20703V5C12 4.44772 11.5523 4 11 4H3C2.44772 4 2 4.44772 2 5V11C2 11.5523 2.44772 12 3 12H4V14.0284L5.5576 12.9158C5.70554 13.2179 5.88037 13.5045 6.07896 13.7723L4.58124 14.8421C3.91937 15.3149 3 14.8418 3 14.0284V13C1.89543 13 1 12.1046 1 11V5C1 3.89543 1.89543 3 3 3H3.05001ZM15 10.5C15 8.01472 12.9853 6 10.5 6C8.01472 6 6 8.01472 6 10.5C6 12.9853 8.01472 15 10.5 15C12.9853 15 15 12.9853 15 10.5ZM12.8536 8.64645C13.0488 8.84171 13.0488 9.15829 12.8536 9.35355L9.85355 12.3536C9.65829 12.5488 9.34171 12.5488 9.14645 12.3536L8.14645 11.3536C7.95118 11.1583 7.95118 10.8417 8.14645 10.6464C8.34171 10.4512 8.65829 10.4512 8.85355 10.6464L9.5 11.2929L12.1464 8.64645C12.3417 8.45118 12.6583 8.45118 12.8536 8.64645Z" fill="#212121"/>
</svg>

<svg viewBox="0 0 16 16" fill="none" xmlns="http://www.w3.org/2000/svg" height="1em" width="1em">
  <path d="M3.05 3A2.5 2.5 0 0 1 5.5 1H12a3 3 0 0 1 3 3v3.337a5.533 5.533 0 0 0-1-1.08V4a2 2 0 0 0-2-2H5.5a1.5 1.5 0 0 0-1.415 1H11a2 2 0 0 1 2 2v.6a5.465 5.465 0 0 0-1-.393V5a1 1 0 0 0-1-1H3a1 1 0 0 0-1 1v6a1 1 0 0 0 1 1h1v2.028l1.558-1.112c.148.302.322.588.521.856l-1.498 1.07A1 1 0 0 1 3 14.028V13a2 2 0 0 1-2-2V5a2 2 0 0 1 2-2h.05ZM15 10.5a4.5 4.5 0 1 0-9 0 4.5 4.5 0 0 0 9 0Zm-2.146-1.854a.5.5 0 0 1 0 .708l-3 3a.5.5 0 0 1-.708 0l-1-1a.5.5 0 0 1 .708-.708l.646.647 2.646-2.647a.5.5 0 0 1 .708 0Z" fill="#212121"/>
</svg>
